build/img/icon-fb.svg

<svg height="27" viewBox="0 0 27 27" width="27" xmlns="http://www.w3.org/2000/svg"><path clip-rule="evenodd" d="m27 13.5002c0-7.45546-6.0438-13.50007793-13.5-13.50007793-7.45621 0-13.5 6.04461793-13.5 13.50007793 0 7.4561 6.04369 13.4999 13.5 13.4999 7.4562 0 13.5-6.0437 13.5-13.4999zm-10.1164-4.20613h-1.7399c-.4683 0-.7973.39658-.7973.89103v.7754h2.4848l-.4024 2.5169h-2.0833v6.7466h-2.543v-6.7466h-1.6875v-2.5169h1.6875v-1.28338h.005c.0448-1.46307.5527-2.85608 3.0308-2.94385v-.00927h2.0453z" fill-rule="evenodd"/></svg>

<svg width="27" height="27" viewBox="0 0 27 27" xmlns="http://www.w3.org/2000/svg">
<path fill-rule="evenodd" clip-rule="evenodd" d="M27 13.5002C27 6.04474 20.9562 0.00012207 13.5 0.00012207C6.04379 0.00012207 0 6.04474 0 13.5002C0 20.9563 6.04369 27.0001 13.5 27.0001C20.9562 27.0001 27 20.9564 27 13.5002ZM16.8836 9.29407H15.1437C14.6754 9.29407 14.3464 9.69065 14.3464 10.1851V10.9605H16.8312L16.4288 13.4774H14.3455V20.224H11.8025V13.4774H10.115V10.9605H11.8025V9.67712H11.8075C11.8523 8.21405 12.3602 6.82104 14.8383 6.73327V6.724H16.8836V9.29407Z" />
</svg>
